www/assets/icons/traffic.svg

<svg xmlns="http://www.w3.org/2000/svg" width="24" height="24" viewBox="0 0 24 24" fill='currentColor'><path d="M20 10h-3V8.86c1.72-.45 3-2 3-3.86h-3V4c0-.55-.45-1-1-1H8c-.55 0-1 .45-1 1v1H4c0 1.86 1.28 3.41 3 3.86V10H4c0 1.86 1.28 3.41 3 3.86V15H4c0 1.86 1.28 3.41 3 3.86V20c0 .55.45 1 1 1h8c.55 0 1-.45 1-1v-1.14c1.72-.45 3-2 3-3.86h-3v-1.14c1.72-.45 3-2 3-3.86m-8 9a2 2 0 1 1-.001-3.999A2 2 0 0 1 12 19m0-5a2 2 0 1 1-.001-3.999A2 2 0 0 1 12 14m0-5a2 2 0 0 1-2-2c0-1.11.89-2 2-2a2 2 0 1 1 0 4"/></svg>

<svg width="24" height="24" viewBox="0 0 24 24" xmlns="http://www.w3.org/2000/svg" fill='currentColor'><path d="M20 10H17V8.86C18.72 8.41 20 6.86 20 5H17V4C17 3.45 16.55 3 16 3H8C7.45 3 7 3.45 7 4V5H4C4 6.86 5.28 8.41 7 8.86V10H4C4 11.86 5.28 13.41 7 13.86V15H4C4 16.86 5.28 18.41 7 18.86V20C7 20.55 7.45 21 8 21H16C16.55 21 17 20.55 17 20V18.86C18.72 18.41 20 16.86 20 15H17V13.86C18.72 13.41 20 11.86 20 10ZM12 19C10.89 19 10 18.1 10 17C10 15.9 10.89 15 12 15C13.1 15 14 15.9 14 17C14 18.1 13.11 19 12 19ZM12 14C10.89 14 10 13.1 10 12C10 10.9 10.89 10 12 10C13.1 10 14 10.9 14 12C14 13.1 13.11 14 12 14ZM12 9C10.89 9 10 8.1 10 7C10 5.89 10.89 5 12 5C13.1 5 14 5.89 14 7C14 8.1 13.11 9 12 9Z"/></svg>
